packages/elvis-assets-icons/icons/svg/src/folder_create.svg

<svg width="24" height="24" fill="none" xmlns="http://www.w3.org/2000/svg"><path d="M2.447 19.5a.725.725 0 01-.231-.037A2.465 2.465 0 010 17.06V2.25A2.252 2.252 0 012.25 0h4.5C7.99 0 9 1.009 9 2.25V3h9.75C19.99 3 21 4.009 21 5.25V7.5h.75c.601 0 1.166.234 1.591.658a2.235 2.235 0 01.583 2.171.752.752 0 01-.919.531.747.747 0 01-.53-.918A.746.746 0 0021.75 9H7.879a.755.755 0 00-.722.542l-2.351 8.154a2.337 2.337 0 01-.108.304H8.25a.75.75 0 010 1.5H2.447zm-.197-18a.75.75 0 00-.75.75v14.8a.95.95 0 001.864.235l2.352-8.158A2.261 2.261 0 017.878 7.5H19.5V5.25a.75.75 0 00-.75-.75H8.25a.75.75 0 01-.75-.75v-1.5a.75.75 0 00-.75-.75h-4.5z" fill="#000"/><path d="M17.25 24a6.758 6.758 0 01-6.75-6.75 6.758 6.758 0 016.75-6.75A6.758 6.758 0 0124 17.25 6.758 6.758 0 0117.25 24zm0-12A5.256 5.256 0 0012 17.25a5.256 5.256 0 005.25 5.25 5.256 5.256 0 005.25-5.25A5.256 5.256 0 0017.25 12z" fill="#000"/><path d="M17.25 21a.75.75 0 01-.75-.75V18h-2.25a.75.75 0 010-1.5h2.25v-2.25a.75.75 0 011.5 0v2.25h2.25a.75.75 0 010 1.5H18v2.25a.75.75 0 01-.75.75z" fill="#000"/></svg>

<svg width="24" height="24" viewBox="0 0 24 24" fill="none" xmlns="http://www.w3.org/2000/svg">
<path d="M2.447 19.5C2.368 19.5 2.291 19.488 2.216 19.463C0.986 19.345 0.017 18.3 0 17.06V2.25C0 1.009 1.009 0 2.25 0H6.75C7.99 0 9 1.009 9 2.25V3H18.75C19.99 3 21 4.009 21 5.25V7.5H21.75C22.351 7.5 22.916 7.734 23.341 8.158C23.766 8.583 24 9.148 24 9.749C24 9.944 23.975 10.14 23.924 10.329C23.836 10.657 23.538 10.886 23.199 10.886C23.134 10.886 23.068 10.877 23.005 10.86C22.812 10.808 22.65 10.684 22.55 10.511C22.45 10.338 22.423 10.136 22.475 9.942C22.492 9.88 22.5 9.815 22.5 9.751C22.5 9.549 22.422 9.361 22.28 9.219C22.139 9.078 21.95 9 21.75 9H7.879C7.546 9 7.25 9.223 7.157 9.542L4.806 17.696C4.777 17.8 4.741 17.901 4.698 18H8.25C8.663 18 9 18.336 9 18.75C9 19.164 8.663 19.5 8.25 19.5H2.447ZM2.25 1.5C1.836 1.5 1.5 1.836 1.5 2.25V17.05C1.507 17.559 1.933 17.977 2.45 17.977C2.881 17.971 3.251 17.687 3.364 17.285L5.716 9.127C5.993 8.169 6.881 7.5 7.878 7.5H19.5V5.25C19.5 4.836 19.164 4.5 18.75 4.5H8.25C7.836 4.5 7.5 4.164 7.5 3.75V2.25C7.5 1.836 7.164 1.5 6.75 1.5H2.25Z" fill="black"/>
<path d="M17.25 24C13.528 24 10.5 20.972 10.5 17.25C10.5 13.528 13.528 10.5 17.25 10.5C20.972 10.5 24 13.528 24 17.25C24 20.972 20.972 24 17.25 24ZM17.25 12C14.355 12 12 14.355 12 17.25C12 20.145 14.355 22.5 17.25 22.5C20.145 22.5 22.5 20.145 22.5 17.25C22.5 14.355 20.145 12 17.25 12Z" fill="black"/>
<path d="M17.25 21C16.836 21 16.5 20.664 16.5 20.25V18H14.25C13.836 18 13.5 17.664 13.5 17.25C13.5 16.836 13.836 16.5 14.25 16.5H16.5V14.25C16.5 13.836 16.836 13.5 17.25 13.5C17.664 13.5 18 13.836 18 14.25V16.5H20.25C20.664 16.5 21 16.836 21 17.25C21 17.664 20.663 18 20.25 18H18V20.25C18 20.664 17.663 21 17.25 21Z" fill="black"/>
</svg>
